azure-patterns/svg-stacked-squares-plus.svg

<svg xmlns="http://www.w3.org/2000/svg" viewBox="0 0 156 157">
                                
                            
<path d="M142.034 14.4607H44.5715V111.924H142.034V14.4607Z" fill="black"></path>
<path d="M126.088 30.3828H22.459V134.011H126.088V30.3828Z" fill="#0078D4"></path>
<path d="M111.428 45.0667H7.42847V149.067H111.428V45.0667Z" fill="#50E6FF"></path>
<path d="M96.5713 93.3771H63.1922V59.998H55.7637V93.3771H22.3599V100.806H55.7637V134.209H63.1922V100.806H96.5713V93.3771Z" fill="#0078D4"></path>
</svg>

<svg xmlns="http://www.w3.org/2000/svg" viewBox="0 0 156 157"><path d="M142.034 14.46H44.572v97.464h97.462V14.461z"/><path d="M126.088 30.383H22.459V134.01h103.629V30.383z" fill="#0078D4"/><path d="M111.428 45.067h-104v104h104v-104z" fill="#50E6FF"/><path d="M96.571 93.377H63.192V59.998h-7.428v33.38H22.36v7.428h33.404v33.403h7.428v-33.403h33.38v-7.429z" fill="#0078D4"/></svg>
